X: 9385
T: Dandy Bash
R: jig
M: 6/8
K: Gmajor
|:D|G2 F E2 D|G2 B d3|e2 A A2 G|EAG FED|
G2 F E2 D|G2 B d3|e2 B AGE|G3 G2:|
|:B|d2 g g2 f|e2 g d2 B|e2 A A2 d|ge/f/g edB|
d2 g g2 f|eaf gfe|d2 B AGE|G3 G2:|

